X: 3
T: Irishman's Heart to the Ladies (Irish; J-17)
M: 6/8
Z: Transcribed to abc by Mary Lou Knack
R: jig
K: A
a| "A"ecA "D"BAF| "A"AFE EFA| "Bm"Bdc BAB| "E"cBB B2 a|
   "A"ecA "D"BAF| "A"AFE EFA| "Bm"Bdc "E7"BAB| "A"cAA A2 :|
|:A| "A"cee "D"dff| "A"cee ecA| cde "D"eaf| "A"ecA "E"B2 A|
   "A"cee "D"dff| "A"cee ecA| "Bm"Bdc "E7"BAB| "A"cAA A2 :|
%%text Irishman's Heart to the Ladies also known as "Health to the Ladies".
%%text 12/19/04 

#include "RightHeader.h"
% ---------- set 77 ----------
%%text Set 77
%%vskip -1cm
%%scale .67
